X:370
T: Phelim's Frolic
S: Reavy Collection: "Music of Corktown"
Z: B.Black
M: 4/4
L: 1/8
R: reel
K: C
AB|: cBcG ECEG|c2 Ac BcdB|cBcG EFGc|1 Addc BGAB :|2\
Addc BGAB||
c2 gc acgc|(3cBc ac BcdB|c2 gc acgb|aged cGAB|
c2 gc acgc|(3cBc ac BcdB|cBcd egge|aged cGAB :|
